assets/svg/networks/wallet_stellar.svg

<svg width="36" height="36" viewBox="0 0 36 36" fill="none" xmlns="http://www.w3.org/2000/svg">
<g clip-path="url(#clip0_52314_201702)">
<rect width="36" height="36" rx="10" fill="#282F36"/>
<path d="M9.768 19.1317C9.53017 17.2562 9.89138 15.3535 10.8 13.6957C11.5106 12.3976 12.547 11.307 13.8072 10.5313C15.0463 9.76948 16.4688 9.35807 17.9232 9.34089C19.3773 9.32654 20.8081 9.70684 22.0632 10.4413L23.9652 9.43089C22.4655 8.28973 20.6712 7.60033 18.7932 7.44369C16.9208 7.29245 15.0444 7.68232 13.3872 8.56689C11.7036 9.46869 10.3032 10.82 9.342 12.4705C8.2208 14.3849 7.7093 16.5954 7.8756 18.8077C7.9032 19.1857 7.8228 19.5637 7.644 19.8973C7.46874 20.2254 7.20026 20.4943 6.8724 20.6701L6 21.1333V23.2969L30 10.5445V8.38089L9.768 19.1317ZM30 12.7069L11.0544 22.7677L6 25.4557V27.6157L26.2368 16.8625C26.2848 17.2409 26.3084 17.6209 26.3076 18.0025C26.3076 19.5085 25.9296 20.9905 25.206 22.3105C24.4946 23.6105 23.4564 24.7024 22.194 25.4785C20.953 26.2405 19.5282 26.6511 18.072 26.6665C16.6164 26.6791 15.1847 26.2963 13.9296 25.5589L13.8276 25.6153L12.0348 26.5681C13.5342 27.709 15.328 28.3984 17.2056 28.5553C19.0775 28.7067 20.9534 28.3172 22.6104 27.4333C24.294 26.5326 25.6948 25.1826 26.6568 23.5333C27.7801 21.6166 28.2921 19.4029 28.1244 17.1877C28.0966 16.8103 28.177 16.4327 28.356 16.0993C28.5309 15.7713 28.799 15.5025 29.1264 15.3265L30 14.8633V12.7069Z" fill="white"/>
</g>
<defs>
<clipPath id="clip0_52314_201702">
<rect width="36" height="36" fill="white"/>
</clipPath>
</defs>
</svg>

<svg xmlns="http://www.w3.org/2000/svg" width="36" height="36" fill="none"><g clip-path="url(#a)"><rect width="36" height="36" fill="#282F36" rx="10"/><path fill="#fff" d="M9.768 19.132a8.96 8.96 0 0 1 1.032-5.436 8.5 8.5 0 0 1 3.007-3.165 8.04 8.04 0 0 1 4.116-1.19 8.04 8.04 0 0 1 4.14 1.1l1.902-1.01a9.9 9.9 0 0 0-5.172-1.987 9.8 9.8 0 0 0-5.406 1.123 10.3 10.3 0 0 0-4.045 3.903 10.9 10.9 0 0 0-1.466 6.338c.027.378-.053.756-.232 1.09a1.9 1.9 0 0 1-.772.772L6 21.133v2.164l24-12.753V8.381zM30 12.707l-18.946 10.06L6 25.457v2.16l20.237-10.753q.072.567.07 1.14a8.96 8.96 0 0 1-1.101 4.308 8.5 8.5 0 0 1-3.012 3.168 8.04 8.04 0 0 1-4.122 1.188 8.04 8.04 0 0 1-4.142-1.108l-.102.056-1.793.953a9.9 9.9 0 0 0 5.17 1.987 9.8 9.8 0 0 0 5.405-1.122 10.3 10.3 0 0 0 4.047-3.9 10.9 10.9 0 0 0 1.467-6.345 2 2 0 0 1 .232-1.089c.175-.328.443-.597.77-.773l.874-.463z"/></g><defs><clipPath id="a"><path fill="#fff" d="M0 0h36v36H0z"/></clipPath></defs></svg>
